X:46
T:Don Brown's Visit
R:jig
C:Brenda Stubbert
O:Cape Breton Island
S:http://www.cranfordpub.com
Z:psc, (re-formatted,updated 9/19/04)
N:http://www.cranfordpub.com/stubbert
H:                                                        copyrights Stubbert Music, SOCAN
L:1/8
Q:288
M:6/8
K:A
F|ECE FEF|AGA BAB|caf ecA|Bdc BAF|
ECE FEF|AGA BAB|caf ecA|BAG A2:|
|:B|cAB cde|fde faf|eaf ecA|[1Bdc BAB|
cAB cde|fde faf|eaf ecA|BAG A2:|
[2Bdc BAF|ECE FEF|AGA BAB|caf ecA|BAG A2|]
